Obsidian-SemiLight/actions/22s/path-simplify.svg

<svg viewBox="0 0 22 22" xmlns="http://www.w3.org/2000/svg"><path d="m10.957031 3.0019531c-.3411 0-.663744.1278882-.902343.3300781-.238601.2021702-.4023374.4613513-.5292974.7382813-.25394.55385-.3772294 1.2053481-.5058594 1.8300781-.1286298.62473-.2617798 1.2222288-.4375 1.6054688-.0878999.19162-.1816648.3233912-.265625.3945312-.0839999.0712-.1489798.0996094-.28125.0996094-.1290199 0-.1925237-.0276425-.2773437-.1015625-.0849-.0739-.1826244-.2117463-.2714844-.4101563-.17775-.39683-.3103631-1.0116543-.4394531-1.6464843-.1291-.63483-.2517225-1.2872707-.5078125-1.8378907-.12804-.2753099-.2954687-.5345856-.5429687-.7285156-.24748-.19394-.5804451-.2995542-.921875-.2714844-.65328.0537002-1.1205413.54499-1.4257813 1.09375-.30526.5487501-.4980319 1.2062494-.6386719 1.8496094-.004.0188-.0057656.0359875-.0097656.0546875h1.0019531c.12581-.52971.2900475-1.0467662.4921875-1.4101562.22349-.40177.43795-.5719038.65625-.5898438.13042-.0107.1816294.0101594.2558594.0683594.0742.0582.1674164.1773113.2539062.3632813.1729901.3719299.3046538.9792512.4335938 1.6132812.12893.63403.2549625 1.294865.5078125 1.859375.12642.28225.2873506.5465963.5253906.7539062.23803.2073201.5619.3398438.90625.3398438.3411 0 .6637438-.125945.9023438-.328125s.4023369-.4633144.5292969-.7402344c.25394-.55385.3772193-1.2014319.5058593-1.8261718.1286299-.62473.2617899-1.226135.4374999-1.609375.0879-.1916301.183608-.3214382.267578-.3925782.084-.0712.14898-.1015625.28125-.1015625s.195254.0294094.277344.0996094c.082.0702.175749.2012581.261719.3925781.17193.38263.298448.983755.423828 1.609375.12537.62561.249812 1.274018.507812 1.8300782.12899.2780298.295883.5408075.539063.7421874.24319.2013801.567079.3242188.912109.3242188s.671783-.1238319.914063-.3261719c.24228-.20235.406593-.4638375.533203-.7421875.25319-.55671.370417-1.2053481.492187-1.8300781.12178-.62475.246912-1.2250787.419922-1.6054687.0865-.1902001.182598-.3196451.267578-.390625.085-.0710002.154815-.1035157.296875-.1035157.28415 0 .482182.1545425.707032.5390625.21185.36226.37834.9037675.49414 1.4609375h.996094c-.006-.0334-.009425-.0641562-.015625-.0976562-.12789-.65615-.313589-1.3243732-.636719-1.8769531-.32313-.5525801-.854872-1.0253907-1.544922-1.0253907-.34503 0-.671782.125765-.914062.328125-.24229.20235-.406593.4638375-.533203.7421875-.25319.55671-.370408 1.2073013-.492188 1.8320313-.12177.62473-.246902 1.2231156-.419922 1.6035156-.0865.1902-.182598.319645-.267578.390625-.0849.071-.154805.1015625-.296875.1015625s-.213911-.0315356-.300781-.1035156c-.0869-.072-.183084-.2020482-.271484-.3925782-.17679-.3810299-.306611-.9777124-.431641-1.6015624-.12502-.6238501-.245011-1.2736651-.494141-1.828125-.12457-.2772301-.283804-.5370744-.521484-.7402344-.23768-.20317-.561244-.3320313-.902344-.3320313zm-2.957031 7.9980469c-1.16667 0-2.4428362.537834-3.4726562 1.052734-.7531001.37656-1.2502738.681832-1.5273438.857422v1.191406l.2773438-.185546s.7251224-.48365 1.6953124-.96875c.9701801-.48509 2.1940138-.947266 3.0273438-.947266.33333 0 .7418886.182391 1.1992188.525391.4573299.343.9472652.828125 1.4472652 1.328125s1.010065 1.014875 1.552735 1.421875 1.134111.724609 1.800781.724609c1.16667 0 2.442836-.537824 3.472656-1.052734.75263-.37632 1.250024-.681692 1.527344-.857422v-1.191406l-.277344.185546s-.725122.48366-1.695312.96875c-.97018.4851-2.194014.947266-3.027344.947266-.33333 0-.741889-.180436-1.199219-.523438-.45733-.342998-.947265-.830078-1.447265-1.330078s-1.010065-1.01292-1.5527348-1.419922c-.5426698-.407-1.1341112-.726562-1.8007812-.726562zm-5 7v1h16v-1z" fill="#4d4d4d"/></svg>

<svg xmlns="http://www.w3.org/2000/svg" viewBox="0 0 22 22">
  <defs id="defs3051">
    <style type="text/css" id="current-color-scheme">
      .ColorScheme-Text {
        color:#4d4d4d;
      }
      </style>
  </defs>
 <path 
     style="fill:currentColor;fill-opacity:1;stroke:none" 
     d="M 10.957031 3.0019531 C 10.615931 3.0019531 10.293287 3.1298413 10.054688 3.3320312 C 9.816087 3.5342014 9.6523506 3.7933825 9.5253906 4.0703125 C 9.2714506 4.6241625 9.1481612 5.2756606 9.0195312 5.9003906 C 8.8909014 6.5251206 8.7577514 7.1226194 8.5820312 7.5058594 C 8.4941313 7.6974794 8.4003664 7.8292506 8.3164062 7.9003906 C 8.2324063 7.9715906 8.1674264 8 8.0351562 8 C 7.9061363 8 7.8426325 7.9723575 7.7578125 7.8984375 C 7.6729125 7.8245375 7.5751881 7.6866912 7.4863281 7.4882812 C 7.3085781 7.0914512 7.175965 6.4766269 7.046875 5.8417969 C 6.917775 5.2069669 6.7951525 4.5545262 6.5390625 4.0039062 C 6.4110225 3.7285963 6.2435938 3.4693206 5.9960938 3.2753906 C 5.7486138 3.0814506 5.4156487 2.9758364 5.0742188 3.0039062 C 4.4209388 3.0576064 3.9536775 3.5488962 3.6484375 4.0976562 C 3.3431775 4.6464063 3.1504056 5.3039056 3.0097656 5.9472656 C 3.0057656 5.9660656 3.004 5.9832531 3 6.0019531 L 4.0019531 6.0019531 C 4.1277631 5.4722431 4.2920006 4.9551869 4.4941406 4.5917969 C 4.7176306 4.1900269 4.9320906 4.0198931 5.1503906 4.0019531 C 5.2808106 3.9912531 5.33202 4.0121125 5.40625 4.0703125 C 5.48045 4.1285125 5.5736664 4.2476238 5.6601562 4.4335938 C 5.8331463 4.8055237 5.96481 5.412845 6.09375 6.046875 C 6.22268 6.680905 6.3487125 7.34174 6.6015625 7.90625 C 6.7279825 8.1885 6.8889131 8.4528463 7.1269531 8.6601562 C 7.3649831 8.8674763 7.6888531 9 8.0332031 9 C 8.3743031 9 8.6969469 8.874055 8.9355469 8.671875 C 9.1741469 8.469695 9.3378838 8.2085606 9.4648438 7.9316406 C 9.7187838 7.3777906 9.8420631 6.7302087 9.9707031 6.1054688 C 10.099333 5.4807388 10.232493 4.8793338 10.408203 4.4960938 C 10.496103 4.3044637 10.591811 4.1746556 10.675781 4.1035156 C 10.759781 4.0323156 10.824761 4.0019531 10.957031 4.0019531 C 11.089301 4.0019531 11.152285 4.0313625 11.234375 4.1015625 C 11.316375 4.1717625 11.410124 4.3028206 11.496094 4.4941406 C 11.668024 4.8767706 11.794542 5.4778956 11.919922 6.1035156 C 12.045292 6.7291256 12.169734 7.3775336 12.427734 7.9335938 C 12.556724 8.2116236 12.723617 8.4744013 12.966797 8.6757812 C 13.209987 8.8771613 13.533876 9 13.878906 9 C 14.223936 9 14.550689 8.8761681 14.792969 8.6738281 C 15.035249 8.4714781 15.199562 8.2099906 15.326172 7.9316406 C 15.579362 7.3749306 15.696589 6.7262925 15.818359 6.1015625 C 15.940139 5.4768125 16.065271 4.8764838 16.238281 4.4960938 C 16.324781 4.3058937 16.420879 4.1764487 16.505859 4.1054688 C 16.590859 4.0344686 16.660674 4.0019531 16.802734 4.0019531 C 17.086884 4.0019531 17.284916 4.1564956 17.509766 4.5410156 C 17.721616 4.9032756 17.888106 5.4447831 18.003906 6.0019531 L 19 6.0019531 C 18.994 5.9685531 18.990575 5.9377969 18.984375 5.9042969 C 18.856485 5.2481469 18.670786 4.5799237 18.347656 4.0273438 C 18.024526 3.4747637 17.492784 3.0019531 16.802734 3.0019531 C 16.457704 3.0019531 16.130952 3.1277181 15.888672 3.3300781 C 15.646382 3.5324281 15.482079 3.7939156 15.355469 4.0722656 C 15.102279 4.6289756 14.985061 5.2795669 14.863281 5.9042969 C 14.741511 6.5290269 14.616379 7.1274125 14.443359 7.5078125 C 14.356859 7.6980125 14.260761 7.8274575 14.175781 7.8984375 C 14.090881 7.9694375 14.020976 8 13.878906 8 C 13.736836 8 13.664995 7.9684644 13.578125 7.8964844 C 13.491225 7.8244844 13.395041 7.6944362 13.306641 7.5039062 C 13.129851 7.1228763 13.00003 6.5261938 12.875 5.9023438 C 12.74998 5.2784937 12.629989 4.6286787 12.380859 4.0742188 C 12.256289 3.7969887 12.097055 3.5371444 11.859375 3.3339844 C 11.621695 3.1308144 11.298131 3.0019531 10.957031 3.0019531 z M 8 11 C 6.83333 11 5.5571638 11.537834 4.5273438 12.052734 C 3.7742437 12.429294 3.27707 12.734566 3 12.910156 L 3 14.101562 L 3.2773438 13.916016 C 3.2773438 13.916016 4.0024662 13.432366 4.9726562 12.947266 C 5.9428363 12.462176 7.16667 12 8 12 C 8.33333 12 8.7418886 12.182391 9.1992188 12.525391 C 9.6565487 12.868391 10.146484 13.353516 10.646484 13.853516 C 11.146484 14.353516 11.656549 14.868391 12.199219 15.275391 C 12.741889 15.682391 13.33333 16 14 16 C 15.16667 16 16.442836 15.462176 17.472656 14.947266 C 18.225286 14.570946 18.72268 14.265574 19 14.089844 L 19 12.898438 L 18.722656 13.083984 C 18.722656 13.083984 17.997534 13.567644 17.027344 14.052734 C 16.057164 14.537834 14.83333 15 14 15 C 13.66667 15 13.258111 14.819564 12.800781 14.476562 C 12.343451 14.133564 11.853516 13.646484 11.353516 13.146484 C 10.853516 12.646484 10.343451 12.133564 9.8007812 11.726562 C 9.2581114 11.319562 8.66667 11 8 11 z M 3 18 L 3 19 L 19 19 L 19 18 L 3 18 z "
     class="ColorScheme-Text"
     />
</svg>
